X: 30733
T: Ormond Sound
R: reel
M: 4/4
K: Adorian
A2 ed BedB|AG ~G2 AGEG|Aeed (3B^cd ef|
gfga gedg|eA (3AAA BedB|AGEF G2 AG|
EA (3AAA GABd|1 gedB A2 (3EFG:|2 gedB A2 (3B^cd||
|:efge agfg|eaag edBd|(3efg fa ~g2 ge|
dgge dBGB|~c2 cA d2 (3B^cd|ef (3gfe a2 ga|
bg ~g2 agab|1 gedB A2 (3B^cd:|2 gedB A2 (3EFG||

